static/assets/images/icons/swapper-mono.svg

<svg width="257" height="256" viewBox="0 0 257 256" fill="none" xmlns="http://www.w3.org/2000/svg">
<path d="M67.3385 166.263L60.9321 233.856C60.8016 235.232 61.4725 236.387 62.4645 237.016C62.5171 237.049 62.5706 237.081 62.6249 237.112L80.4308 207.473C79.6578 206.739 79.1592 205.683 79.1677 204.449C79.2245 196.202 80.381 169.591 80.381 169.591L67.3385 166.263Z" fill="black"/>
<path d="M91.5808 65.9091L24.4719 59.5569C22.8464 59.4031 21.5387 60.4309 21.0685 61.7859L50.0484 79.7997C50.767 78.8241 51.918 78.1688 53.2922 78.1799C61.4585 78.2456 75.8213 78.4943 88.1172 79.3969L91.5808 65.9091Z" fill="black"/>
<path d="M189.162 90.5924L195.389 22.1821C195.52 20.7387 194.771 19.5413 193.697 18.9401L175.866 48.621C176.63 49.3564 177.122 50.4092 177.111 51.6373C177.039 59.9712 175.872 87.028 175.872 87.028L189.162 90.5924Z" fill="black"/>
<path d="M164.712 190.158L231.855 196.513C233.272 196.647 234.447 195.884 235.037 194.788L205.894 176.672C205.176 177.42 204.165 177.897 202.992 177.887C194.784 177.821 167.997 176.657 167.997 176.657L164.712 190.158Z" fill="black"/>
<path d="M174.786 98.2228C174.648 111.141 176.54 119.047 182.802 130.28C184.438 133.214 187.489 137.48 187.489 137.48L196.095 126.65C176.03 125.641 170.955 99.2451 189.162 90.5924L175.872 87.028C175.872 87.028 174.833 93.8299 174.786 98.2228Z" fill="black"/>
<path d="M98.2988 80.3773C111.799 80.6001 120.096 78.5169 131.795 71.6453C134.535 70.0357 136.162 68.6251 138.542 67.0813L128.26 58.1995C126.733 76.7171 99.2966 84.2853 91.5808 65.9091L88.1172 79.3969C90.6182 79.5805 94.3054 80.3114 98.2988 80.3773Z" fill="black"/>
<path d="M81.4442 158.948C81.7243 145.149 79.6807 136.64 72.8929 124.697C71.3171 121.925 68.4255 117.872 68.4255 117.872L59.8907 128.248C78.0824 129.546 85.3702 157.901 67.3385 166.263L80.381 169.591C80.381 169.591 81.3594 163.125 81.4442 158.948Z" fill="black"/>
<path d="M157.994 175.69C144.494 175.448 136.205 177.565 124.498 184.422C121.705 186.058 120.049 187.497 117.623 189.068L128.033 197.868C129.435 179.238 156.996 171.782 164.712 190.158L167.997 176.657C167.997 176.657 161.917 175.76 157.994 175.69Z" fill="black"/>
<path fill-rule="evenodd" clip-rule="evenodd" d="M155.019 120.754C158.996 135.88 150.189 151.428 135.348 155.48C120.507 159.533 105.252 150.557 101.276 135.431C97.2989 120.306 106.106 104.758 120.947 100.705C135.788 96.6523 151.043 105.629 155.019 120.754ZM133.132 147.053C143.407 144.248 149.504 133.484 146.751 123.012C143.998 112.541 133.437 106.326 123.163 109.132C112.888 111.938 106.791 122.702 109.544 133.173C112.297 143.645 122.858 149.859 133.132 147.053Z" fill="black"/>
<path fill-rule="evenodd" clip-rule="evenodd" d="M160.761 119.186C165.588 137.544 154.898 156.414 136.886 161.332C118.874 166.251 100.36 155.357 95.5336 136.999C90.7073 118.642 101.396 99.7721 119.409 94.8532C137.421 89.9343 155.935 100.829 160.761 119.186ZM136.086 158.289C152.449 153.821 162.16 136.679 157.776 120.002C153.391 103.325 136.572 93.4277 120.209 97.8963C103.846 102.365 94.1349 119.507 98.5194 136.184C102.904 152.861 119.723 162.758 136.086 158.289Z" fill="black"/>
<path fill-rule="evenodd" clip-rule="evenodd" d="M124.498 184.422C136.205 177.565 144.494 175.448 157.994 175.69C161.917 175.76 167.997 176.657 167.997 176.657C167.997 176.657 194.784 177.821 202.992 177.887C204.165 177.897 205.176 177.42 205.894 176.672C207.033 175.486 207.434 173.617 206.576 171.931C202.52 163.956 187.489 137.48 187.489 137.48C187.489 137.48 184.438 133.214 182.802 130.28C176.54 119.047 174.648 111.141 174.786 98.2228C174.833 93.8299 175.872 87.028 175.872 87.028C175.872 87.028 177.039 59.9712 177.111 51.6373C177.122 50.4092 176.63 49.3564 175.866 48.621C174.691 47.4914 172.871 47.1107 171.236 47.9941C163.584 52.127 149.876 59.7292 138.542 67.0813C136.162 68.6251 134.535 70.0357 131.795 71.6453C120.096 78.5169 111.799 80.6001 98.2988 80.3773C94.3054 80.3114 90.6182 79.5805 88.1172 79.3969C75.8213 78.4943 61.4585 78.2456 53.2922 78.1799C51.918 78.1688 50.767 78.8241 50.0484 79.7997C49.1799 80.9786 48.9429 82.6252 49.7064 84.1284C53.7029 91.9973 68.4255 117.872 68.4255 117.872C68.4255 117.872 71.3171 121.925 72.8929 124.697C79.6807 136.64 81.7243 145.149 81.4442 158.948C81.3594 163.125 80.381 169.591 80.381 169.591C80.381 169.591 79.2245 196.202 79.1677 204.449C79.1592 205.683 79.6578 206.739 80.4308 207.473C81.6054 208.589 83.4137 208.96 85.0397 208.082C92.6593 203.967 106.306 196.4 117.623 189.068C120.049 187.497 121.705 186.058 124.498 184.422ZM170.556 100.551C171.584 84.7874 172.981 62.4656 173.027 56.9511C173.048 54.4497 170.473 52.8512 168.31 54.032C163.203 56.8191 143.921 68.8822 130.518 77.3226C121.74 82.85 111.507 85.4533 101.21 84.7765C85.7995 83.7634 63.9318 82.3838 58.5316 82.3428C56.0917 82.3242 54.5268 84.9208 55.6614 87.1224C58.3853 92.4081 70.1887 112.426 78.3211 126.131C83.5037 134.866 85.9728 144.97 85.4061 155.161C84.5307 170.902 83.3142 193.617 83.2665 199.115C83.2447 201.616 85.818 203.217 87.9814 202.036C93.0433 199.274 111.977 187.231 125.324 178.679C134.291 172.933 144.819 170.253 155.383 171.029C170.814 172.163 192.415 173.684 197.768 173.724C200.206 173.743 201.771 171.148 200.641 168.946C197.91 163.626 186.185 144.208 177.924 130.635C172.445 121.633 169.867 111.121 170.556 100.551Z" fill="black"/>
<path fill-rule="evenodd" clip-rule="evenodd" d="M146.751 123.012C149.504 133.484 143.407 144.248 133.132 147.053C122.858 149.859 112.297 143.645 109.544 133.173C106.791 122.702 112.888 111.938 123.163 109.132C133.437 106.326 143.998 112.541 146.751 123.012ZM132.455 144.479C141.335 142.054 146.604 132.752 144.225 123.702C141.846 114.653 132.719 109.282 123.84 111.707C114.96 114.132 109.691 123.434 112.07 132.483C114.449 141.533 123.576 146.903 132.455 144.479Z" fill="black"/>
<path fill-rule="evenodd" clip-rule="evenodd" d="M128.26 58.1995L190.396 19.0295C191.489 18.3403 192.726 18.3966 193.697 18.9401L175.866 48.621C174.691 47.4914 172.871 47.1107 171.236 47.9941C163.584 52.127 149.876 59.7292 138.542 67.0813L128.26 58.1995ZM187.489 137.48L196.095 126.65L234.958 191.44C235.624 192.551 235.567 193.804 235.037 194.788L205.894 176.672C207.033 175.486 207.434 173.617 206.576 171.931C202.52 163.956 187.489 137.48 187.489 137.48ZM128.033 197.868L117.623 189.068C106.306 196.4 92.6593 203.967 85.0397 208.082C83.4137 208.96 81.6054 208.589 80.4308 207.473L62.6249 237.112C63.5952 237.654 64.8307 237.71 65.9234 237.021L128.033 197.868ZM68.4255 117.872L59.8907 128.248L21.3766 64.6424C20.8125 63.7108 20.7592 62.6775 21.0685 61.7859L50.0484 79.7997C49.1799 80.9786 48.9429 82.6252 49.7064 84.1284C53.7029 91.9973 68.4255 117.872 68.4255 117.872Z" fill="black"/>
</svg>

<svg xmlns="http://www.w3.org/2000/svg" viewBox="0 0 257 256"><path d="m67.339 166.263-6.407 67.593a3.32 3.32 0 0 0 1.693 3.256l17.806-29.639a4.08 4.08 0 0 1-1.263-3.024c.056-8.247 1.213-34.858 1.213-34.858zM91.58 65.91l-67.108-6.353c-1.626-.154-2.933.874-3.404 2.229L50.049 79.8a3.95 3.95 0 0 1 3.244-1.62c8.166.066 22.53.314 34.825 1.217zm97.582 24.682 6.227-68.41a3.33 3.33 0 0 0-1.692-3.242l-17.831 29.681a4.1 4.1 0 0 1 1.245 3.016c-.072 8.334-1.239 35.391-1.239 35.391zm-24.45 99.566 67.143 6.355c1.417.134 2.592-.629 3.182-1.725l-29.143-18.116a3.93 3.93 0 0 1-2.902 1.215c-8.208-.066-34.995-1.23-34.995-1.23z"/><path d="M174.786 98.223c-.138 12.918 1.754 20.824 8.016 32.057 1.636 2.934 4.687 7.2 4.687 7.2l8.606-10.83c-20.065-1.009-25.14-27.405-6.933-36.058l-13.29-3.564s-1.039 6.802-1.086 11.195M98.299 80.377c13.5.223 21.797-1.86 33.496-8.732 2.74-1.61 4.367-3.02 6.747-4.564L128.26 58.2c-1.527 18.518-28.963 26.086-36.68 7.71l-3.463 13.488c2.501.183 6.188.914 10.182.98m-16.855 78.57c.28-13.799-1.763-22.308-8.551-34.251-1.576-2.772-4.468-6.825-4.468-6.825l-8.534 10.376c18.191 1.298 25.48 29.653 7.447 38.015l13.043 3.328s.978-6.466 1.063-10.643m76.55 16.742c-13.5-.242-21.789 1.875-33.496 8.732-2.793 1.636-4.449 3.075-6.875 4.646l10.41 8.8c1.402-18.63 28.963-26.086 36.679-7.71l3.285-13.501s-6.08-.897-10.003-.967"/><path fill-rule="evenodd" d="M155.019 120.754c3.977 15.126-4.83 30.674-19.671 34.726-14.841 4.053-30.096-4.923-34.072-20.049s4.83-30.673 19.671-34.726 30.096 4.924 34.072 20.049m-21.887 26.299c10.275-2.805 16.372-13.569 13.619-24.041s-13.314-16.686-23.588-13.88-16.372 13.57-13.619 24.041 13.314 16.686 23.588 13.88" clip-rule="evenodd"/><path fill-rule="evenodd" d="M160.761 119.186c4.827 18.358-5.863 37.228-23.875 42.146-18.012 4.919-36.526-5.975-41.352-24.333-4.827-18.357 5.862-37.227 23.875-42.146s36.526 5.976 41.352 24.333m-24.675 39.103c16.363-4.468 26.074-21.61 21.69-38.287s-21.204-26.574-37.567-22.106c-16.363 4.469-26.074 21.611-21.69 38.288s21.204 26.574 37.567 22.105" clip-rule="evenodd"/><path fill-rule="evenodd" d="M124.498 184.422c11.707-6.857 19.996-8.974 33.496-8.732 3.923.07 10.003.967 10.003.967s26.787 1.164 34.995 1.23a3.93 3.93 0 0 0 2.902-1.215 4.115 4.115 0 0 0 .682-4.741c-4.056-7.975-19.087-34.451-19.087-34.451s-3.051-4.266-4.687-7.2c-6.262-11.233-8.154-19.139-8.016-32.057.047-4.393 1.086-11.195 1.086-11.195s1.167-27.057 1.239-35.39a4.1 4.1 0 0 0-1.245-3.017c-1.175-1.13-2.995-1.51-4.63-.627-7.652 4.133-21.36 11.735-32.694 19.087-2.38 1.544-4.007 2.955-6.747 4.564-11.699 6.872-19.996 8.955-33.496 8.732-3.994-.066-7.68-.796-10.182-.98-12.296-.903-26.659-1.151-34.825-1.217a3.95 3.95 0 0 0-3.244 1.62 4.11 4.11 0 0 0-.342 4.328c3.997 7.87 18.72 33.744 18.72 33.744s2.891 4.053 4.467 6.825c6.788 11.943 8.831 20.452 8.551 34.251-.085 4.177-1.063 10.643-1.063 10.643s-1.156 26.611-1.213 34.858a4.08 4.08 0 0 0 1.263 3.024c1.174 1.116 2.983 1.487 4.609.609 7.62-4.115 21.266-11.682 32.583-19.014 2.426-1.571 4.082-3.01 6.875-4.646m46.058-83.871c1.028-15.764 2.425-38.085 2.471-43.6.021-2.501-2.554-4.1-4.717-2.919-5.107 2.787-24.389 14.85-37.792 23.29-8.778 5.528-19.011 8.131-29.308 7.454-15.41-1.013-37.278-2.392-42.678-2.433-2.44-.019-4.005 2.578-2.87 4.78 2.723 5.285 14.527 25.303 22.66 39.008a51.3 51.3 0 0 1 7.084 29.03c-.875 15.741-2.092 38.456-2.14 43.954-.021 2.501 2.552 4.102 4.715 2.921 5.062-2.762 23.996-14.805 37.343-23.357 8.967-5.746 19.495-8.426 30.059-7.65 15.431 1.134 37.032 2.655 42.385 2.695 2.438.019 4.003-2.576 2.873-4.778-2.731-5.32-14.456-24.738-22.717-38.311a51.44 51.44 0 0 1-7.368-30.084" clip-rule="evenodd"/><path fill-rule="evenodd" d="M146.751 123.012c2.753 10.472-3.344 21.236-13.619 24.041-10.274 2.806-20.835-3.408-23.588-13.88-2.753-10.471 3.344-21.235 13.619-24.041 10.274-2.806 20.835 3.409 23.588 13.88m-14.296 21.467c8.88-2.425 14.149-11.727 11.77-20.777-2.379-9.049-11.506-14.42-20.385-11.995s-14.149 11.727-11.77 20.776c2.379 9.05 11.506 14.42 20.385 11.996M128.26 58.2l62.136-39.17a3.19 3.19 0 0 1 3.301-.09l-17.831 29.681c-1.175-1.13-2.995-1.51-4.63-.627-7.652 4.133-21.36 11.735-32.694 19.087zm59.229 79.28 8.606-10.83 38.863 64.79a3.36 3.36 0 0 1 .079 3.348l-29.143-18.116a4.115 4.115 0 0 0 .682-4.741c-4.056-7.975-19.087-34.451-19.087-34.451m-59.456 60.388-10.41-8.8c-11.317 7.332-24.964 14.899-32.583 19.014-1.626.878-3.435.507-4.61-.609l-17.805 29.639c.97.542 2.206.598 3.298-.091zm-59.607-79.996-8.535 10.376-38.514-63.606a3.34 3.34 0 0 1-.308-2.856L50.049 79.8a4.11 4.11 0 0 0-.343 4.328c3.997 7.87 18.72 33.744 18.72 33.744" clip-rule="evenodd"/></svg>
